common/resources/fonts/svg/embed.svg

<?xml version="1.0" encoding="UTF-8" standalone="no"?>
<svg width="1024px" height="1024px" viewBox="0 0 1024 1024" version="1.1" xmlns="http://www.w3.org/2000/svg" xmlns:xlink="http://www.w3.org/1999/xlink">
    <!-- Generator: Sketch 39.1 (31720) - http://www.bohemiancoding.com/sketch -->
    <title>embed</title>
    <desc>Created with Sketch.</desc>
    <defs></defs>
    <g id="Page-1" stroke="none" stroke-width="1" fill="none" fill-rule="evenodd">
        <g id="embed" fill="#221F20">
            <path d="M294.725501,738.731701 L69,503.619843 L294.725501,268.510721 L339.270045,314.904497 L158.086437,503.621211 L339.270045,692.337924 L294.725501,738.731701 Z M727.193102,738.639244 L682.311823,692.338471 L865.23744,503.621758 L682.311823,314.903676 L727.193102,268.604271 L955,503.623125 L727.193102,738.639244 Z M546.208884,150 L414.607596,864.266659 L463.719282,873.89664 L595.319244,159.629981 L546.208884,150 Z" id="Combined-Shape"></path>
        </g>
    </g>
</svg>

<svg width="1024" height="1024" viewBox="0 0 1024 1024">
    <path d="M294.726 738.732L69 503.62l225.726-235.11 44.544 46.394-181.184 188.717L339.27 692.338l-44.544 46.394zm432.467-.093l-44.881-46.3 182.925-188.717-182.925-188.718 44.881-46.3L955 503.624 727.193 738.638zM546.21 150L414.608 864.267l49.111 9.63 131.6-714.267-49.11-9.63z" fill="#221F20" fill-rule="evenodd"/>
</svg>
